svgs/symphony.svg

<svg xmlns="http://www.w3.org/2000/svg" viewBox="0 0 192 192"><path fill="none" stroke="#000" stroke-linecap="round" stroke-linejoin="round" stroke-width="6" d="M36.725 172.82c-8.13-.916-14.453-7.543-12.85-13.469 1.073-3.966 4.676-7.244 9.622-8.755 3.72-1.135 10.464-1.006 13.68.262 1.367.539 2.573.891 2.681.782.109-.108.306-11.533.438-25.387l.24-25.19h2.901c2.457 0 2.9.123 2.9.801.001 1.675 2.708 6.394 5.072 8.841 2.71 2.805 5.8 4.798 9.305 6.003l2.289.787-.138 2.424c-.076 1.333-.293 2.579-.481 2.769-1.057 1.063-10.198-3.168-13.738-6.358l-2.193-1.975-.281 1.706c-.155.938-.284 12.117-.287 24.841l-.005 23.135-1.322 2.088c-3.238 5.118-9.838 7.596-17.833 6.695Zm9.865-7.131c2.11-1.101 3.811-2.996 3.811-4.246 0-1.292-2.081-3.435-4.449-4.583-2.842-1.376-8.442-1.511-11.625-.28-2.302.89-4.93 3.473-4.93 4.844 0 1.383 1.839 3.295 4.302 4.473 2.056.983 2.811 1.09 6.656.945 3.33-.126 4.779-.394 6.236-1.153Zm72.344-7.464c-1.522-.61-2.292-1.762-2.31-3.455-.022-2.186 1.151-3.134 6.379-5.161 16.36-6.343 30.493-20.615 36.77-37.133 1.804-4.75 2.792-5.929 4.947-5.907 1.735.018 2.839.793 3.459 2.427.37.975.225 1.898-.714 4.539-1.75 4.921-6.184 13.262-9.661 18.172-6.262 8.845-15.297 16.559-25.669 21.919-4.123 2.131-11.496 5.242-12.013 5.069a79.255 79.255 0 0 1-1.187-.47Zm-5.447-16.215c-1.11-1.415-1.224-2.399-.468-4.063.385-.844 1.679-1.632 4.977-3.026 6.222-2.632 10.904-5.833 16.001-10.941 5.097-5.108 8.291-9.8 10.917-16.036 1.391-3.305 2.177-4.603 3.02-4.988 1.659-.757 2.642-.644 4.054.469 1.095.864 1.227 1.23 1.039 2.899-.297 2.643-3.809 9.881-7.264 14.97-5.508 8.116-13.65 14.978-23.082 19.456-2.417 1.148-5.252 2.184-6.301 2.302-1.665.188-2.031.056-2.893-1.042Zm-17.885-27.669c-5.849-.745-10.535-3.143-15.117-7.734-4.086-4.095-6.104-7.734-7.057-12.726-.82-4.293-.813-6.397.033-10.436 2.475-11.814 13.427-20.806 25.34-20.806 3.33 0 8.214 1.23 11.688 2.943 2.423 1.194 4.095 2.497 6.621 5.155 5.3 5.577 7.475 11.004 7.385 18.428-.182 15.119-13.914 27.085-28.894 25.176Zm9.592-10.211c1.788-.66 3.313-1.731 5.292-3.714 3.522-3.53 4.826-6.693 4.826-11.71 0-5.016-1.304-8.179-4.826-11.71-3.523-3.53-6.679-4.837-11.684-4.837-5.005 0-8.161 1.307-11.684 4.837-3.523 3.531-4.827 6.694-4.827 11.71 0 4.588 1.265 7.927 4.241 11.19 4.757 5.216 11.725 6.797 18.662 4.234ZM45.738 74.354c-2.118-1.613-1.711-4.216 1.721-10.996C53.433 51.555 62.584 42.616 74.7 36.747c5.451-2.64 8.017-3.062 9.424-1.548 1.149 1.236 1.281 3.449.291 4.867-.379.542-1.818 1.408-3.198 1.926-13.078 4.904-24.236 16.155-29.222 29.464-.452 1.209-1.248 2.496-1.767 2.86-1.162.816-3.442.836-4.489.039Zm-15.093-4.067c-1.635-1.244-1.762-2.877-.496-6.408 1.709-4.764 5.11-11.381 8.419-16.377 3.867-5.839 13.293-15.286 19.119-19.161 8.306-5.525 18.617-10.022 20.945-9.136 1.559.594 2.33 1.724 2.348 3.439.022 2.162-1.156 3.15-5.922 4.968-16.518 6.302-30.672 20.387-37.023 36.841-1.02 2.643-2.274 5.166-2.786 5.606-1.084.932-3.52 1.053-4.603.229Zm91.765-22.214c-.93-.954-1.69-1.859-1.69-2.012 0-.152 2.668-2.977 5.929-6.279l5.93-6.002 30.338.241 4.414 5.491-32.255.24-5.001 5.029c-2.751 2.765-5.22 5.028-5.488 5.028-.267 0-1.247-.781-2.177-1.736Z"/></svg>

<svg
    xmlns="http://www.w3.org/2000/svg"
    viewBox="0 0 192 192"
    id="vector">
    <path
        id="path"
        d="M 36.725 172.82 C 28.595 171.904 22.272 165.277 23.875 159.351 C 24.948 155.385 28.551 152.107 33.497 150.596 C 37.217 149.461 43.961 149.59 47.177 150.858 C 48.544 151.397 49.75 151.749 49.858 151.64 C 49.967 151.532 50.164 140.107 50.296 126.253 L 50.536 101.063 L 53.437 101.063 C 55.894 101.063 56.337 101.186 56.337 101.864 C 56.338 103.539 59.045 108.258 61.409 110.705 C 64.119 113.51 67.209 115.503 70.714 116.708 L 73.003 117.495 L 72.865 119.919 C 72.789 121.252 72.572 122.498 72.384 122.688 C 71.327 123.751 62.186 119.52 58.646 116.33 L 56.453 114.355 L 56.172 116.061 C 56.017 116.999 55.888 128.178 55.885 140.902 L 55.88 164.037 L 54.558 166.125 C 51.32 171.243 44.72 173.721 36.725 172.82 Z M 46.59 165.689 C 48.7 164.588 50.401 162.693 50.401 161.443 C 50.401 160.151 48.32 158.008 45.952 156.86 C 43.11 155.484 37.51 155.349 34.327 156.58 C 32.025 157.47 29.397 160.053 29.397 161.424 C 29.397 162.807 31.236 164.719 33.699 165.897 C 35.755 166.88 36.51 166.987 40.355 166.842 C 43.685 166.716 45.134 166.448 46.591 165.689 Z M 118.934 158.225 C 117.412 157.615 116.642 156.463 116.624 154.77 C 116.602 152.584 117.775 151.636 123.003 149.609 C 139.363 143.266 153.496 128.994 159.773 112.476 C 161.577 107.726 162.565 106.547 164.72 106.569 C 166.455 106.587 167.559 107.362 168.179 108.996 C 168.549 109.971 168.404 110.894 167.465 113.535 C 165.715 118.456 161.281 126.797 157.804 131.707 C 151.542 140.552 142.507 148.266 132.135 153.626 C 128.012 155.757 120.639 158.868 120.122 158.695 C 120.074 158.679 119.54 158.468 118.935 158.225 Z M 113.487 142.01 C 112.377 140.595 112.263 139.611 113.019 137.947 C 113.404 137.103 114.698 136.315 117.996 134.921 C 124.218 132.289 128.9 129.088 133.997 123.98 C 139.094 118.872 142.288 114.18 144.914 107.944 C 146.305 104.639 147.091 103.341 147.934 102.956 C 149.593 102.199 150.576 102.312 151.988 103.425 C 153.083 104.289 153.215 104.655 153.027 106.324 C 152.73 108.967 149.218 116.205 145.763 121.294 C 140.255 129.41 132.113 136.272 122.681 140.75 C 120.264 141.898 117.429 142.934 116.38 143.052 C 114.715 143.24 114.349 143.108 113.487 142.01 Z M 95.602 114.341 C 89.753 113.596 85.067 111.198 80.485 106.607 C 76.399 102.512 74.381 98.873 73.428 93.881 C 72.608 89.588 72.615 87.484 73.461 83.445 C 75.936 71.631 86.888 62.639 98.801 62.639 C 102.131 62.639 107.015 63.869 110.489 65.582 C 112.912 66.776 114.584 68.079 117.11 70.737 C 122.41 76.314 124.585 81.741 124.495 89.165 C 124.313 104.284 110.581 116.25 95.601 114.341 Z M 105.194 104.13 C 106.982 103.47 108.507 102.399 110.486 100.416 C 114.008 96.886 115.312 93.723 115.312 88.706 C 115.312 83.69 114.008 80.527 110.486 76.996 C 106.963 73.466 103.807 72.159 98.802 72.159 C 93.797 72.159 90.641 73.466 87.118 76.996 C 83.595 80.527 82.291 83.69 82.291 88.706 C 82.291 93.294 83.556 96.633 86.532 99.896 C 91.289 105.112 98.257 106.693 105.194 104.13 Z M 45.738 74.354 C 43.62 72.741 44.027 70.138 47.459 63.358 C 53.433 51.555 62.584 42.616 74.7 36.747 C 80.151 34.107 82.717 33.685 84.124 35.199 C 85.273 36.435 85.405 38.648 84.415 40.066 C 84.036 40.608 82.597 41.474 81.217 41.992 C 68.139 46.896 56.981 58.147 51.995 71.456 C 51.543 72.665 50.747 73.952 50.228 74.316 C 49.066 75.132 46.786 75.152 45.739 74.355 Z M 30.645 70.287 C 29.01 69.043 28.883 67.41 30.149 63.879 C 31.858 59.115 35.259 52.498 38.568 47.502 C 42.435 41.663 51.861 32.216 57.687 28.341 C 65.993 22.816 76.304 18.319 78.632 19.205 C 80.191 19.799 80.962 20.929 80.98 22.644 C 81.002 24.806 79.824 25.794 75.058 27.612 C 58.54 33.914 44.386 47.999 38.035 64.453 C 37.015 67.096 35.761 69.619 35.249 70.059 C 34.165 70.991 31.729 71.112 30.646 70.288 Z M 122.41 48.073 C 121.48 47.119 120.72 46.214 120.72 46.061 C 120.72 45.909 123.388 43.084 126.649 39.782 L 132.579 33.78 L 162.917 34.021 L 167.331 39.512 L 135.076 39.752 L 130.075 44.781 C 127.324 47.546 124.855 49.809 124.587 49.809 C 124.32 49.809 123.34 49.028 122.41 48.073 Z"
        fill="none"
        stroke="#000000"
        stroke-width="6"
        stroke-linecap="round"
        stroke-linejoin="round"/>
</svg>
